X:1
T:Miss McLeod's Reel
M: C|
R: reel
K: G
BA|:"G"G2g2 "C"edeg| "G"B2BA BcBA| G2gf "C"edeg| "D"A2AG AcBA|
   "G"G2g2 "C"edeg| B2BA Bcd2| "C"e3f edef| "G"gedB "D"A2 BA :|
|: "G"GABc dBGA| B2BA BcBA| GABc dBGB| "D7"A2AG AcBA|
    "G"GABc dBGA| B2BA Bcd2| "C"e3f edef| "G"gedB "D7"A2BA :|
